docs/assets/panic.svg

<svg width="107" height="113" viewBox="0 0 107 113" fill="none" xmlns="http://www.w3.org/2000/svg">
<path d="M0 38.5421C2.47734 42.3886 4.76141 46.1408 7.25047 49.7458C10.1671 53.9633 10.2256 58.016 7.29146 62.2571C4.79655 65.8621 2.51248 69.6202 0 73.5197C4.31631 75.1926 8.44521 76.8713 12.6268 78.3852C17.1774 80.0345 19.5962 83.0917 19.684 88.0455C19.7543 91.8684 20.1525 95.6855 20.1994 99.5084C20.2228 101.529 20.9666 101.77 22.6767 101.27C26.3195 100.203 30.0151 99.3317 33.652 98.2537C38.1909 96.9107 41.8629 97.9945 44.7912 101.776C47.1866 104.869 49.7518 107.832 52.1061 110.954C53.1427 112.326 53.7343 112.45 54.8294 111.001C57.1838 107.879 59.749 104.916 62.1502 101.823C65.0726 98.0711 68.7213 96.893 73.2719 98.236C76.7273 99.2551 80.2939 99.9148 83.6849 101.099C86.3379 102.024 86.824 101.116 86.8299 98.6837C86.8416 95.1553 87.2574 91.6328 87.2984 88.1044C87.357 83.1447 89.7582 80.064 94.3029 78.4029C98.4962 76.8654 102.643 75.1984 106.994 73.5197C104.458 69.5848 102.104 65.7678 99.5797 62.0568C96.833 58.016 96.7978 54.1047 99.5446 50.0521C102.063 46.3352 104.429 42.5182 107 38.5303C102.49 36.7986 98.1448 35.1551 93.8168 33.4646C89.805 31.8977 87.5034 29.0703 87.3453 24.6053C87.2047 20.588 86.8592 16.5707 86.7889 12.5534C86.7538 10.5683 86.051 10.2738 84.3174 10.7804C80.6746 11.8525 76.9732 12.7007 73.3363 13.7845C68.7916 15.1452 65.1253 14.0202 62.197 10.2679C59.8485 7.2638 57.3595 4.35981 55.0696 1.31444C53.9334 -0.193518 53.2599 -0.546946 51.9714 1.23786C49.7401 4.32446 47.2042 7.19312 44.8615 10.2031C41.9449 13.9436 38.308 15.157 33.7457 13.8022C30.1088 12.7243 26.4015 11.8819 22.7646 10.7922C20.8261 10.2149 20.217 10.7215 20.1994 12.7478C20.1584 16.4706 19.7543 20.1934 19.7016 23.9161C19.6255 28.8582 17.277 31.9743 12.7205 33.6413C8.5272 35.1728 4.38073 36.8457 0.0117132 38.5303L0 38.5421Z" fill="white"/>
<path d="M48.8852 64.8111L46.5602 30.5361H60.5102L58.1852 64.8111H48.8852ZM53.5352 83.6361C51.4352 83.6361 49.7102 82.9611 48.3602 81.6111C47.0102 80.2611 46.3352 78.6611 46.3352 76.8111C46.3352 74.9111 47.0102 73.3361 48.3602 72.0861C49.7102 70.7861 51.4352 70.1361 53.5352 70.1361C55.6852 70.1361 57.4102 70.7861 58.7102 72.0861C60.0602 73.3361 60.7352 74.9111 60.7352 76.8111C60.7352 78.6611 60.0602 80.2611 58.7102 81.6111C57.4102 82.9611 55.6852 83.6361 53.5352 83.6361Z" fill="#3A2657"/>
</svg>

<svg xmlns="http://www.w3.org/2000/svg" width="107" height="113" fill="none" xmlns:v="https://vecta.io/nano"><path d="M0 38.542l7.25 11.204c2.917 4.217 2.975 8.27.041 12.511C4.797 65.862 2.512 69.62 0 73.52l12.627 4.865c4.551 1.649 6.969 4.707 7.057 9.66.07 3.823.468 7.64.515 11.463.023 2.021.767 2.262 2.477 1.762 3.643-1.067 7.338-1.938 10.975-3.016 4.539-1.343 8.211-.259 11.139 3.522l7.315 9.178c1.037 1.372 1.628 1.496 2.723.047 2.354-3.122 4.92-6.085 7.321-9.178 2.922-3.752 6.571-4.93 11.122-3.587 3.455 1.019 7.022 1.679 10.413 2.863 2.653.925 3.139.017 3.145-2.415.012-3.528.428-7.051.469-10.579.059-4.96 2.46-8.04 7.004-9.701 4.193-1.538 8.34-3.204 12.691-4.883L99.58 62.057c-2.747-4.041-2.782-7.952-.035-12.005 2.518-3.717 4.884-7.534 7.455-11.522l-13.183-5.066c-4.012-1.567-6.313-4.394-6.472-8.859l-.556-12.052c-.035-1.985-.738-2.28-2.471-1.773-3.643 1.072-7.344 1.92-10.981 3.004-4.545 1.361-8.211.236-11.139-3.517L55.07 1.314c-1.136-1.508-1.81-1.861-3.098-.077-2.231 3.087-4.767 5.955-7.11 8.965-2.917 3.741-6.553 4.954-11.116 3.599-3.637-1.078-7.344-1.92-10.981-3.01-1.939-.577-2.548-.071-2.565 1.956-.041 3.723-.445 7.446-.498 11.168-.076 4.942-2.425 8.058-6.981 9.725-4.193 1.532-8.34 3.204-12.709 4.889L0 38.542z" fill="#fff"/><path d="M48.885 64.811L46.56 30.536h13.95l-2.325 34.275h-9.3zm4.65 18.825c-2.1 0-3.825-.675-5.175-2.025s-2.025-2.95-2.025-4.8c0-1.9.675-3.475 2.025-4.725 1.35-1.3 3.075-1.95 5.175-1.95 2.15 0 3.875.65 5.175 1.95 1.35 1.25 2.025 2.825 2.025 4.725 0 1.85-.675 3.45-2.025 4.8-1.3 1.35-3.025 2.025-5.175 2.025z" fill="#3a2657"/></svg>
